images/decore_offer.svg

<svg width="153" height="166" viewBox="0 0 153 166" fill="none" xmlns="http://www.w3.org/2000/svg">
<path d="M11.5586 12.6104V14.4795H0.837891V12.6104H11.5586ZM7.19727 8.04492V19.4316H5.20996V8.04492H7.19727Z" fill="#FF7152"/>
<path d="M11.5586 47.6104V49.4795H0.837891V47.6104H11.5586ZM7.19727 43.0449V54.4316H5.20996V43.0449H7.19727Z" fill="#E5E5E5"/>
<path d="M11.5586 82.6104V84.4795H0.837891V82.6104H11.5586ZM7.19727 78.0449V89.4316H5.20996V78.0449H7.19727Z" fill="#E5E5E5"/>
<path d="M46.5586 12.6104V14.4795H35.8379V12.6104H46.5586ZM42.1973 8.04492V19.4316H40.21V8.04492H42.1973Z" fill="#E5E5E5"/>
<path d="M46.5586 47.6104V49.4795H35.8379V47.6104H46.5586ZM42.1973 43.0449V54.4316H40.21V43.0449H42.1973Z" fill="#E5E5E5"/>
<path d="M46.5586 82.6104V84.4795H35.8379V82.6104H46.5586ZM42.1973 78.0449V89.4316H40.21V78.0449H42.1973Z" fill="#E5E5E5"/>
<path d="M46.5586 117.61V119.479H35.8379V117.61H46.5586ZM42.1973 113.045V124.432H40.21V113.045H42.1973Z" fill="#E5E5E5"/>
<path d="M81.5586 12.6104V14.4795H70.8379V12.6104H81.5586ZM77.1973 8.04492V19.4316H75.21V8.04492H77.1973Z" fill="#E5E5E5"/>
<path d="M81.5586 47.6104V49.4795H70.8379V47.6104H81.5586ZM77.1973 43.0449V54.4316H75.21V43.0449H77.1973Z" fill="#E5E5E5"/>
<path d="M81.5586 82.6104V84.4795H70.8379V82.6104H81.5586ZM77.1973 78.0449V89.4316H75.21V78.0449H77.1973Z" fill="#6246E5"/>
<path d="M81.5586 117.61V119.479H70.8379V117.61H81.5586ZM77.1973 113.045V124.432H75.21V113.045H77.1973Z" fill="#E5E5E5"/>
<path d="M81.5586 152.61V154.479H70.8379V152.61H81.5586ZM77.1973 148.045V159.432H75.21V148.045H77.1973Z" fill="#E5E5E5"/>
<path d="M116.559 12.6104V14.4795H105.838V12.6104H116.559ZM112.197 8.04492V19.4316H110.21V8.04492H112.197Z" fill="#E5E5E5"/>
<path d="M116.559 47.6104V49.4795H105.838V47.6104H116.559ZM112.197 43.0449V54.4316H110.21V43.0449H112.197Z" fill="#E5E5E5"/>
<path d="M116.559 82.6104V84.4795H105.838V82.6104H116.559ZM112.197 78.0449V89.4316H110.21V78.0449H112.197Z" fill="#E5E5E5"/>
<path d="M116.559 117.61V119.479H105.838V117.61H116.559ZM112.197 113.045V124.432H110.21V113.045H112.197Z" fill="#E5E5E5"/>
<path d="M116.559 152.61V154.479H105.838V152.61H116.559ZM112.197 148.045V159.432H110.21V148.045H112.197Z" fill="#E5E5E5"/>
<path d="M151.559 12.6104V14.4795H140.838V12.6104H151.559ZM147.197 8.04492V19.4316H145.21V8.04492H147.197Z" fill="#E5E5E5"/>
<path d="M151.559 47.6104V49.4795H140.838V47.6104H151.559ZM147.197 43.0449V54.4316H145.21V43.0449H147.197Z" fill="#E5E5E5"/>
<path d="M151.559 82.6104V84.4795H140.838V82.6104H151.559ZM147.197 78.0449V89.4316H145.21V78.0449H147.197Z" fill="#E5E5E5"/>
<path d="M151.559 117.61V119.479H140.838V117.61H151.559ZM147.197 113.045V124.432H145.21V113.045H147.197Z" fill="#E5E5E5"/>
<path d="M151.559 152.61V154.479H140.838V152.61H151.559ZM147.197 148.045V159.432H145.21V148.045H147.197Z" fill="#E5E5E5"/>
</svg>

<svg width="153" height="166" fill="none" xmlns="http://www.w3.org/2000/svg"><path d="M11.559 12.61v1.87H.838v-1.87h10.72zM7.197 8.045v11.387H5.21V8.045h1.987z" fill="#FF7152"/><path d="M11.559 47.61v1.87H.838v-1.87h10.72zm-4.362-4.565v11.387H5.21V43.045h1.987zm4.362 39.565v1.87H.838v-1.87h10.72zm-4.362-4.565v11.387H5.21V78.045h1.987zM46.559 12.61v1.87H35.838v-1.87h10.72zm-4.362-4.565v11.387H40.21V8.045h1.987zm4.362 39.565v1.87H35.838v-1.87h10.72zm-4.362-4.565v11.387H40.21V43.045h1.987zm4.362 39.565v1.87H35.838v-1.87h10.72zm-4.362-4.565v11.387H40.21V78.045h1.987zm4.362 39.565v1.869H35.838v-1.869h10.72zm-4.362-4.565v11.387H40.21v-11.387h1.987zM81.559 12.61v1.87H70.838v-1.87h10.72zm-4.362-4.565v11.387H75.21V8.045h1.987zm4.362 39.565v1.87H70.838v-1.87h10.72zm-4.362-4.565v11.387H75.21V43.045h1.987z" fill="#E5E5E5"/><path d="M81.559 82.61v1.87H70.838v-1.87h10.72zm-4.362-4.565v11.387H75.21V78.045h1.987z" fill="#6246E5"/><path d="M81.559 117.61v1.869H70.838v-1.869h10.72zm-4.362-4.565v11.387H75.21v-11.387h1.987zm4.362 39.565v1.869H70.838v-1.869h10.72zm-4.362-4.565v11.387H75.21v-11.387h1.987zM116.559 12.61v1.87h-10.721v-1.87h10.721zm-4.362-4.565v11.387h-1.987V8.045h1.987zm4.362 39.565v1.87h-10.721v-1.87h10.721zm-4.362-4.565v11.387h-1.987V43.045h1.987zm4.362 39.565v1.87h-10.721v-1.87h10.721zm-4.362-4.565v11.387h-1.987V78.045h1.987zm4.362 39.565v1.869h-10.721v-1.869h10.721zm-4.362-4.565v11.387h-1.987v-11.387h1.987zm4.362 39.565v1.869h-10.721v-1.869h10.721zm-4.362-4.565v11.387h-1.987v-11.387h1.987zM151.559 12.61v1.87h-10.721v-1.87h10.721zm-4.362-4.565v11.387h-1.987V8.045h1.987zm4.362 39.565v1.87h-10.721v-1.87h10.721zm-4.362-4.565v11.387h-1.987V43.045h1.987zm4.362 39.565v1.87h-10.721v-1.87h10.721zm-4.362-4.565v11.387h-1.987V78.045h1.987zm4.362 39.565v1.869h-10.721v-1.869h10.721zm-4.362-4.565v11.387h-1.987v-11.387h1.987zm4.362 39.565v1.869h-10.721v-1.869h10.721zm-4.362-4.565v11.387h-1.987v-11.387h1.987z" fill="#E5E5E5"/></svg>
